dist/img/footer-follow.svg

<svg width="22" height="18" viewBox="0 0 22 18" fill="none" xmlns="http://www.w3.org/2000/svg">
<path d="M21 1.82873V16.1713C21.0001 16.2995 20.9703 16.426 20.9128 16.5408C20.8553 16.6556 20.7718 16.7556 20.6688 16.8329C20.5657 16.9101 20.4461 16.9626 20.3192 16.986C20.1923 17.0095 20.0616 17.0033 19.9375 16.9681L1.60417 11.6595C1.42995 11.61 1.27673 11.5054 1.16771 11.3616C1.05869 11.2178 0.999811 11.0427 1 10.8627V7.13733C0.999811 6.95732 1.05869 6.78216 1.16771 6.63837C1.27673 6.49459 1.42995 6.39003 1.60417 6.34052L19.9375 1.03192C20.0616 0.996655 20.1923 0.990514 20.3192 1.01398C20.4461 1.03744 20.5657 1.08987 20.6688 1.16713C20.7718 1.24439 20.8553 1.34436 20.9128 1.45918C20.9703 1.57399 21.0001 1.7005 21 1.82873Z" stroke="#42E052" stroke-width="1.5" stroke-linecap="round" stroke-linejoin="round"/>
<path d="M5 12.5598V16.1981C5 16.4108 5.0878 16.6148 5.24408 16.7651C5.40036 16.9155 5.61232 17 5.83333 17H9.16667C9.38768 17 9.59964 16.9155 9.75592 16.7651C9.9122 16.6148 10 16.4108 10 16.1981V4" stroke="#42E052" stroke-width="1.5" stroke-linecap="round" stroke-linejoin="round"/>
</svg>

<svg width="22" height="18" fill="none" xmlns="http://www.w3.org/2000/svg"><path d="M21 1.829V16.17a.824.824 0 01-.331.662.836.836 0 01-.732.135L1.605 11.66A.833.833 0 011 10.864V7.137a.824.824 0 01.604-.796l18.334-5.31a.839.839 0 01.975.428.824.824 0 01.087.37z" stroke="#42E052" stroke-width="1.5" stroke-linecap="round" stroke-linejoin="round"/><path d="M5 12.56v3.638c0 .213.088.417.244.567a.85.85 0 00.59.235h3.333a.85.85 0 00.589-.235.787.787 0 00.244-.567V4" stroke="#42E052" stroke-width="1.5" stroke-linecap="round" stroke-linejoin="round"/></svg>
